X: 371
T: Let Other Men Praise
M:6/8
L:1/16
B:O'Neill's 371
N:"With spirit."
N:Key signature is A Ionian, but plays A Mixolydian (=g accidentals)
Z:Transcribed by Chris Falt, cfalt@trytel.com
K:A
E2|(E2A2).A2 A3(Bcd)|(B2=G2)G2 G4 e2|(c2A2).A2 A3(BcA)|(=G2E2).E2 E4 (cd)|
.e2.e2.e2 e3(f=ge)|f2d2d2 d4 (cB)|(cB) (cd) (ec) (dc) (de) (fd)|e2A2A2 A4 (AG)|
E3AA2 A3(Bcd)|B2=G2G2 G4 (ed)|c2A2A2 A3(BcA)|=G2E2E2 E4( cd)|
.e2.e2.e2 e3(f=ge)|f2d2d2 d4 (cB)|cc c4 BB B4|eA A4 [A4a4]||


